images/51004270.svg

<?xml version="1.0" encoding="UTF-8"?>
<svg xmlns="http://www.w3.org/2000/svg" xmlns:xlink="http://www.w3.org/1999/xlink" width="300pt" height="300pt" viewBox="0 0 300 300" version="1.1">
<defs>
<g>
<symbol overflow="visible" id="glyph0-0">
<path style="stroke:none;" d="M 0.59375 2.125 L 0.59375 -8.46875 L 6.59375 -8.46875 L 6.59375 2.125 Z M 1.265625 1.453125 L 5.9375 1.453125 L 5.9375 -7.78125 L 1.265625 -7.78125 Z M 1.265625 1.453125 "/>
</symbol>
<symbol overflow="visible" id="glyph0-1">
<path style="stroke:none;" d="M 6.421875 -8.46875 L 6.421875 -7.3125 C 5.972656 -7.519531 5.546875 -7.675781 5.140625 -7.78125 C 4.742188 -7.894531 4.363281 -7.953125 4 -7.953125 C 3.351562 -7.953125 2.851562 -7.828125 2.5 -7.578125 C 2.15625 -7.328125 1.984375 -6.96875 1.984375 -6.5 C 1.984375 -6.113281 2.097656 -5.820312 2.328125 -5.625 C 2.554688 -5.425781 3 -5.269531 3.65625 -5.15625 L 4.359375 -5 C 5.242188 -4.832031 5.894531 -4.535156 6.3125 -4.109375 C 6.738281 -3.691406 6.953125 -3.128906 6.953125 -2.421875 C 6.953125 -1.566406 6.664062 -0.921875 6.09375 -0.484375 C 5.53125 -0.046875 4.695312 0.171875 3.59375 0.171875 C 3.1875 0.171875 2.75 0.125 2.28125 0.03125 C 1.8125 -0.0625 1.328125 -0.203125 0.828125 -0.390625 L 0.828125 -1.609375 C 1.304688 -1.335938 1.773438 -1.132812 2.234375 -1 C 2.703125 -0.863281 3.15625 -0.796875 3.59375 -0.796875 C 4.269531 -0.796875 4.789062 -0.925781 5.15625 -1.1875 C 5.53125 -1.457031 5.71875 -1.835938 5.71875 -2.328125 C 5.71875 -2.753906 5.582031 -3.085938 5.3125 -3.328125 C 5.050781 -3.578125 4.617188 -3.757812 4.015625 -3.875 L 3.296875 -4.015625 C 2.410156 -4.191406 1.769531 -4.46875 1.375 -4.84375 C 0.988281 -5.21875 0.796875 -5.738281 0.796875 -6.40625 C 0.796875 -7.1875 1.066406 -7.796875 1.609375 -8.234375 C 2.148438 -8.679688 2.898438 -8.90625 3.859375 -8.90625 C 4.273438 -8.90625 4.691406 -8.867188 5.109375 -8.796875 C 5.535156 -8.722656 5.972656 -8.613281 6.421875 -8.46875 Z M 6.421875 -8.46875 "/>
</symbol>
<symbol overflow="visible" id="glyph0-2">
<path style="stroke:none;" d="M 1.171875 -8.75 L 2.765625 -8.75 L 6.65625 -1.4375 L 6.65625 -8.75 L 7.796875 -8.75 L 7.796875 0 L 6.203125 0 L 2.328125 -7.3125 L 2.328125 0 L 1.171875 0 Z M 1.171875 -8.75 "/>
</symbol>
<symbol overflow="visible" id="glyph0-3">
<path style="stroke:none;" d="M 1.171875 -8.75 L 2.359375 -8.75 L 2.359375 -5.15625 L 6.65625 -5.15625 L 6.65625 -8.75 L 7.84375 -8.75 L 7.84375 0 L 6.65625 0 L 6.65625 -4.171875 L 2.359375 -4.171875 L 2.359375 0 L 1.171875 0 Z M 1.171875 -8.75 "/>
</symbol>
<symbol overflow="visible" id="glyph0-4">
<path style="stroke:none;" d="M 4.734375 -7.953125 C 3.867188 -7.953125 3.179688 -7.628906 2.671875 -6.984375 C 2.171875 -6.347656 1.921875 -5.472656 1.921875 -4.359375 C 1.921875 -3.265625 2.171875 -2.394531 2.671875 -1.75 C 3.179688 -1.113281 3.867188 -0.796875 4.734375 -0.796875 C 5.585938 -0.796875 6.265625 -1.113281 6.765625 -1.75 C 7.273438 -2.394531 7.53125 -3.265625 7.53125 -4.359375 C 7.53125 -5.472656 7.273438 -6.347656 6.765625 -6.984375 C 6.265625 -7.628906 5.585938 -7.953125 4.734375 -7.953125 Z M 4.734375 -8.90625 C 5.953125 -8.90625 6.925781 -8.492188 7.65625 -7.671875 C 8.394531 -6.847656 8.765625 -5.742188 8.765625 -4.359375 C 8.765625 -2.984375 8.394531 -1.882812 7.65625 -1.0625 C 6.925781 -0.238281 5.953125 0.171875 4.734375 0.171875 C 3.503906 0.171875 2.519531 -0.238281 1.78125 -1.0625 C 1.039062 -1.882812 0.671875 -2.984375 0.671875 -4.359375 C 0.671875 -5.742188 1.039062 -6.847656 1.78125 -7.671875 C 2.519531 -8.492188 3.503906 -8.90625 4.734375 -8.90625 Z M 4.734375 -8.90625 "/>
</symbol>
</g>
</defs>
<g id="surface23093">
<rect x="0" y="0" width="300" height="300" style="fill:rgb(100%,100%,100%);fill-opacity:1;stroke:none;"/>
<path style="fill:none;stroke-width:1.2;stroke-linecap:butt;stroke-linejoin:miter;stroke:rgb(80%,80%,0%);stroke-opacity:1;stroke-miterlimit:10;" d="M 176.460938 104.382812 L 191.605469 105.894531 "/>
<path style="fill:none;stroke-width:1.2;stroke-linecap:butt;stroke-linejoin:miter;stroke:rgb(0%,0%,0%);stroke-opacity:1;stroke-miterlimit:10;" d="M 191.605469 105.894531 L 206.75 107.40625 "/>
<path style="fill:none;stroke-width:1.2;stroke-linecap:butt;stroke-linejoin:miter;stroke:rgb(0%,0%,0%);stroke-opacity:1;stroke-miterlimit:10;" d="M 164.226562 132.257812 L 170.34375 118.320312 "/>
<path style="fill:none;stroke-width:1.2;stroke-linecap:butt;stroke-linejoin:miter;stroke:rgb(80%,80%,0%);stroke-opacity:1;stroke-miterlimit:10;" d="M 170.34375 118.320312 L 176.460938 104.382812 "/>
<path style=" stroke:none;fill-rule:nonzero;fill:rgb(100%,100%,100%);fill-opacity:1;" d="M 172.460938 97.382812 L 180.460938 97.382812 L 180.460938 111.382812 L 172.460938 111.382812 Z M 172.460938 97.382812 "/>
<g style="fill:rgb(80%,80%,0%);fill-opacity:1;">
  <use xlink:href="#glyph0-1" x="172.460938" y="108.521484"/>
</g>
<path style="fill:none;stroke-width:1.2;stroke-linecap:butt;stroke-linejoin:miter;stroke:rgb(0%,0%,0%);stroke-opacity:1;stroke-miterlimit:10;" d="M 206.75 107.40625 L 213.238281 137.144531 "/>
<path style="fill:none;stroke-width:1.2;stroke-linecap:butt;stroke-linejoin:miter;stroke:rgb(0%,0%,0%);stroke-opacity:1;stroke-miterlimit:10;" d="M 214.398438 108.851562 L 219.585938 132.644531 "/>
<path style="fill:none;stroke-width:1.2;stroke-linecap:butt;stroke-linejoin:miter;stroke:rgb(0%,0%,0%);stroke-opacity:1;stroke-miterlimit:10;" d="M 229.265625 86.917969 L 206.75 107.40625 "/>
<path style="fill:none;stroke-width:1.2;stroke-linecap:butt;stroke-linejoin:miter;stroke:rgb(0%,0%,0%);stroke-opacity:1;stroke-miterlimit:10;" d="M 213.238281 137.144531 L 242.238281 146.398438 "/>
<path style="fill:none;stroke-width:1.2;stroke-linecap:butt;stroke-linejoin:miter;stroke:rgb(0%,0%,0%);stroke-opacity:1;stroke-miterlimit:10;" d="M 213.238281 137.144531 L 186.957031 152.503906 "/>
<path style="fill:none;stroke-width:1.2;stroke-linecap:butt;stroke-linejoin:miter;stroke:rgb(0%,0%,0%);stroke-opacity:1;stroke-miterlimit:10;" d="M 242.238281 146.398438 L 264.75 125.910156 "/>
<path style="fill:none;stroke-width:1.2;stroke-linecap:butt;stroke-linejoin:miter;stroke:rgb(0%,0%,0%);stroke-opacity:1;stroke-miterlimit:10;" d="M 264.75 125.910156 L 258.261719 96.167969 "/>
<path style="fill:none;stroke-width:1.2;stroke-linecap:butt;stroke-linejoin:miter;stroke:rgb(0%,0%,0%);stroke-opacity:1;stroke-miterlimit:10;" d="M 258.261719 96.167969 L 229.265625 86.917969 "/>
<path style="fill:none;stroke-width:1.2;stroke-linecap:butt;stroke-linejoin:miter;stroke:rgb(0%,0%,0%);stroke-opacity:1;stroke-miterlimit:10;" d="M 186.957031 152.503906 L 183.9375 182.792969 "/>
<path style="fill:none;stroke-width:1.2;stroke-linecap:butt;stroke-linejoin:miter;stroke:rgb(0%,0%,0%);stroke-opacity:1;stroke-miterlimit:10;" d="M 186.957031 152.503906 L 164.226562 132.257812 "/>
<path style="fill:none;stroke-width:1.2;stroke-linecap:butt;stroke-linejoin:miter;stroke:rgb(0%,0%,0%);stroke-opacity:1;stroke-miterlimit:10;" d="M 189.449219 145.132812 L 171.265625 128.933594 "/>
<path style="fill:none;stroke-width:1.2;stroke-linecap:butt;stroke-linejoin:miter;stroke:rgb(0%,0%,0%);stroke-opacity:1;stroke-miterlimit:10;" d="M 183.9375 182.792969 L 182.425781 197.9375 "/>
<path style="fill:none;stroke-width:1.2;stroke-linecap:butt;stroke-linejoin:miter;stroke:rgb(0%,0%,100%);stroke-opacity:1;stroke-miterlimit:10;" d="M 182.425781 197.9375 L 180.914062 213.082031 "/>
<path style="fill:none;stroke-width:1.2;stroke-linecap:butt;stroke-linejoin:miter;stroke:rgb(0%,0%,0%);stroke-opacity:1;stroke-miterlimit:10;" d="M 176.507812 185.113281 L 175.296875 197.226562 "/>
<path style="fill:none;stroke-width:1.2;stroke-linecap:butt;stroke-linejoin:miter;stroke:rgb(0%,0%,100%);stroke-opacity:1;stroke-miterlimit:10;" d="M 175.296875 197.226562 L 174.089844 209.34375 "/>
<path style="fill:none;stroke-width:1.2;stroke-linecap:butt;stroke-linejoin:miter;stroke:rgb(0%,0%,0%);stroke-opacity:1;stroke-miterlimit:10;" d="M 190.761719 186.535156 L 189.550781 198.648438 "/>
<path style="fill:none;stroke-width:1.2;stroke-linecap:butt;stroke-linejoin:miter;stroke:rgb(0%,0%,100%);stroke-opacity:1;stroke-miterlimit:10;" d="M 189.550781 198.648438 L 188.34375 210.765625 "/>
<path style=" stroke:none;fill-rule:nonzero;fill:rgb(100%,100%,100%);fill-opacity:1;" d="M 176.914062 206.082031 L 185.914062 206.082031 L 185.914062 220.082031 L 176.914062 220.082031 Z M 176.914062 206.082031 "/>
<g style="fill:rgb(0%,0%,100%);fill-opacity:1;">
  <use xlink:href="#glyph0-2" x="176.914062" y="217.220703"/>
</g>
<path style="fill:none;stroke-width:1.2;stroke-linecap:butt;stroke-linejoin:miter;stroke:rgb(0%,0%,0%);stroke-opacity:1;stroke-miterlimit:10;" d="M 164.226562 132.257812 L 149.359375 135.5 "/>
<path style="fill:none;stroke-width:1.2;stroke-linecap:butt;stroke-linejoin:miter;stroke:rgb(0%,0%,100%);stroke-opacity:1;stroke-miterlimit:10;" d="M 149.359375 135.5 L 134.488281 138.742188 "/>
<path style="fill:none;stroke-width:1.2;stroke-linecap:butt;stroke-linejoin:miter;stroke:rgb(0%,0%,100%);stroke-opacity:1;stroke-miterlimit:10;" d="M 134.488281 138.742188 L 124.242188 127.484375 "/>
<path style="fill:none;stroke-width:1.2;stroke-linecap:butt;stroke-linejoin:miter;stroke:rgb(0%,0%,0%);stroke-opacity:1;stroke-miterlimit:10;" d="M 124.242188 127.484375 L 114 116.230469 "/>
<path style=" stroke:none;fill-rule:nonzero;fill:rgb(100%,100%,100%);fill-opacity:1;" d="M 125.488281 131.742188 L 143.488281 131.742188 L 143.488281 145.742188 L 125.488281 145.742188 Z M 125.488281 131.742188 "/>
<g style="fill:rgb(0%,0%,100%);fill-opacity:1;">
  <use xlink:href="#glyph0-2" x="125.488281" y="142.880859"/>
  <use xlink:href="#glyph0-3" x="134.464844" y="142.880859"/>
</g>
<path style="fill:none;stroke-width:1.2;stroke-linecap:butt;stroke-linejoin:miter;stroke:rgb(0%,0%,0%);stroke-opacity:1;stroke-miterlimit:10;" d="M 117.410156 117.316406 L 122.039062 102.820312 "/>
<path style="fill:none;stroke-width:1.2;stroke-linecap:butt;stroke-linejoin:miter;stroke:rgb(100%,0%,0%);stroke-opacity:1;stroke-miterlimit:10;" d="M 122.039062 102.820312 L 126.664062 88.320312 "/>
<path style="fill:none;stroke-width:1.2;stroke-linecap:butt;stroke-linejoin:miter;stroke:rgb(0%,0%,0%);stroke-opacity:1;stroke-miterlimit:10;" d="M 110.589844 115.140625 L 115.214844 100.640625 "/>
<path style="fill:none;stroke-width:1.2;stroke-linecap:butt;stroke-linejoin:miter;stroke:rgb(100%,0%,0%);stroke-opacity:1;stroke-miterlimit:10;" d="M 115.214844 100.640625 L 119.839844 86.140625 "/>
<path style="fill:none;stroke-width:1.2;stroke-linecap:butt;stroke-linejoin:miter;stroke:rgb(0%,0%,0%);stroke-opacity:1;stroke-miterlimit:10;" d="M 114 116.230469 L 84.257812 122.714844 "/>
<path style=" stroke:none;fill-rule:nonzero;fill:rgb(100%,100%,100%);fill-opacity:1;" d="M 118.253906 80.230469 L 128.253906 80.230469 L 128.253906 94.230469 L 118.253906 94.230469 Z M 118.253906 80.230469 "/>
<g style="fill:rgb(100%,0%,0%);fill-opacity:1;">
  <use xlink:href="#glyph0-4" x="118.253906" y="91.369141"/>
</g>
<path style="fill:none;stroke-width:1.2;stroke-linecap:butt;stroke-linejoin:miter;stroke:rgb(0%,0%,0%);stroke-opacity:1;stroke-miterlimit:10;" d="M 84.257812 122.714844 L 72.027344 150.589844 "/>
<path style="fill:none;stroke-width:1.2;stroke-linecap:butt;stroke-linejoin:miter;stroke:rgb(0%,0%,0%);stroke-opacity:1;stroke-miterlimit:10;" d="M 61.53125 102.46875 L 84.257812 122.714844 "/>
<path style="fill:none;stroke-width:1.2;stroke-linecap:butt;stroke-linejoin:miter;stroke:rgb(0%,0%,0%);stroke-opacity:1;stroke-miterlimit:10;" d="M 59.039062 109.839844 L 77.222656 126.039062 "/>
<path style="fill:none;stroke-width:1.2;stroke-linecap:butt;stroke-linejoin:miter;stroke:rgb(0%,0%,0%);stroke-opacity:1;stroke-miterlimit:10;" d="M 72.027344 150.589844 L 41.738281 147.566406 "/>
<path style="fill:none;stroke-width:1.2;stroke-linecap:butt;stroke-linejoin:miter;stroke:rgb(0%,0%,0%);stroke-opacity:1;stroke-miterlimit:10;" d="M 69.707031 143.160156 L 45.476562 140.742188 "/>
<path style="fill:none;stroke-width:1.2;stroke-linecap:butt;stroke-linejoin:miter;stroke:rgb(0%,0%,0%);stroke-opacity:1;stroke-miterlimit:10;" d="M 41.738281 147.566406 L 38.492188 132.699219 "/>
<path style="fill:none;stroke-width:1.2;stroke-linecap:butt;stroke-linejoin:miter;stroke:rgb(80%,80%,0%);stroke-opacity:1;stroke-miterlimit:10;" d="M 38.492188 132.699219 L 35.25 117.828125 "/>
<path style="fill:none;stroke-width:1.2;stroke-linecap:butt;stroke-linejoin:miter;stroke:rgb(80%,80%,0%);stroke-opacity:1;stroke-miterlimit:10;" d="M 35.25 117.828125 L 48.390625 110.148438 "/>
<path style="fill:none;stroke-width:1.2;stroke-linecap:butt;stroke-linejoin:miter;stroke:rgb(0%,0%,0%);stroke-opacity:1;stroke-miterlimit:10;" d="M 48.390625 110.148438 L 61.53125 102.46875 "/>
<path style=" stroke:none;fill-rule:nonzero;fill:rgb(100%,100%,100%);fill-opacity:1;" d="M 31.25 110.828125 L 39.25 110.828125 L 39.25 124.828125 L 31.25 124.828125 Z M 31.25 110.828125 "/>
<g style="fill:rgb(80%,80%,0%);fill-opacity:1;">
  <use xlink:href="#glyph0-1" x="31.25" y="121.966797"/>
</g>
</g>
</svg>

<svg xmlns="http://www.w3.org/2000/svg" xmlns:xlink="http://www.w3.org/1999/xlink" width="300pt" height="300pt" viewBox="0 0 300 300"><defs><symbol overflow="visible"><path d="M.594 2.125V-8.47h6V2.126zm.672-.672h4.671V-7.78h-4.67zm0 0"/></symbol><symbol overflow="visible" id="a"><path d="M6.422-8.47v1.158c-.45-.208-.875-.364-1.28-.47-.4-.113-.78-.17-1.142-.17-.648 0-1.148.124-1.5.374-.344.25-.516.61-.516 1.078 0 .387.114.68.344.875.227.2.672.355 1.328.47L4.36-5c.882.168 1.535.465 1.952.89.426.42.64.98.64 1.688 0 .856-.288 1.5-.858 1.938-.563.437-1.4.656-2.5.656-.406 0-.844-.047-1.313-.14C1.814-.064 1.33-.204.83-.392v-1.22c.477.274.945.477 1.406.61.47.137.922.203 1.36.203.676 0 1.195-.13 1.562-.39.375-.27.563-.65.563-1.14 0-.427-.138-.76-.407-1-.262-.25-.696-.43-1.297-.548l-.72-.14c-.886-.176-1.526-.454-1.92-.83-.388-.374-.58-.893-.58-1.56 0-.782.27-1.392.813-1.83.538-.445 1.288-.67 2.25-.67.413 0 .83.038 1.25.108.425.074.863.184 1.312.328zm0 0"/></symbol><symbol overflow="visible" id="b"><path d="M1.172-8.75h1.594l3.89 7.313V-8.75h1.14V0H6.204L2.328-7.313V0H1.172zm0 0"/></symbol><symbol overflow="visible" id="c"><path d="M1.172-8.75H2.36v3.594h4.296V-8.75h1.188V0H6.656v-4.172H2.36V0H1.17zm0 0"/></symbol><symbol overflow="visible" id="d"><path d="M4.734-7.953c-.867 0-1.554.324-2.062.97-.5.635-.75 1.51-.75 2.624 0 1.094.25 1.965.75 2.61.508.637 1.195.953 2.062.953.852 0 1.532-.316 2.032-.953.507-.645.765-1.516.765-2.61 0-1.113-.257-1.988-.764-2.624-.5-.645-1.18-.97-2.032-.97zm0-.953c1.22 0 2.192.414 2.922 1.234.74.824 1.11 1.93 1.11 3.313 0 1.376-.37 2.477-1.11 3.298C6.926-.24 5.953.17 4.734.17c-1.23 0-2.214-.41-2.953-1.234C1.04-1.882.673-2.984.673-4.36c0-1.382.367-2.488 1.11-3.312.738-.82 1.722-1.234 2.952-1.234zm0 0"/></symbol></defs><g><path fill="#fff" d="M0 0h300v300H0z"/><path d="M176.46 104.383l15.145 1.512" stroke-width="1.2" stroke="#cc0" stroke-miterlimit="10" fill="none"/><path d="M191.605 105.895l15.145 1.51M164.227 132.258l6.117-13.938" stroke-width="1.2" stroke="#000" stroke-miterlimit="10" fill="none"/><path d="M170.344 118.32l6.117-13.937" stroke-width="1.2" stroke="#cc0" stroke-miterlimit="10" fill="none"/><path d="M172.46 97.383h8v14h-8zm0 0" fill="#fff"/><use xlink:href="#a" x="172.461" y="108.521" fill="#cc0"/><path d="M206.75 107.406l6.488 29.74M214.398 108.852l5.188 23.793M229.266 86.918l-22.516 20.488M213.238 137.145l29 9.253M213.238 137.145l-26.28 15.36M242.238 146.398l22.512-20.488M264.75 125.91l-6.488-29.742M258.262 96.168l-28.996-9.25M186.957 152.504l-3.02 30.29M186.957 152.504l-22.73-20.246M189.45 145.133l-18.184-16.2M183.938 182.793l-1.512 15.144" stroke-width="1.2" stroke="#000" stroke-miterlimit="10" fill="none"/><path d="M182.426 197.938l-1.512 15.144" stroke-width="1.2" stroke="#00f" stroke-miterlimit="10" fill="none"/><path d="M176.508 185.113l-1.21 12.114" stroke-width="1.2" stroke="#000" stroke-miterlimit="10" fill="none"/><path d="M175.297 197.227l-1.207 12.117" stroke-width="1.2" stroke="#00f" stroke-miterlimit="10" fill="none"/><path d="M190.762 186.535l-1.21 12.113" stroke-width="1.2" stroke="#000" stroke-miterlimit="10" fill="none"/><path d="M189.55 198.648l-1.206 12.118" stroke-width="1.2" stroke="#00f" stroke-miterlimit="10" fill="none"/><path d="M176.914 206.082h9v14h-9zm0 0" fill="#fff"/><use xlink:href="#b" x="176.914" y="217.221" fill="#00f"/><path d="M164.227 132.258L149.36 135.5" stroke-width="1.2" stroke="#000" stroke-miterlimit="10" fill="none"/><path d="M149.36 135.5l-14.872 3.242M134.488 138.742l-10.246-11.258" stroke-width="1.2" stroke="#00f" stroke-miterlimit="10" fill="none"/><path d="M124.242 127.484L114 116.23" stroke-width="1.2" stroke="#000" stroke-miterlimit="10" fill="none"/><path d="M125.488 131.742h18v14h-18zm0 0" fill="#fff"/><g fill="#00f"><use xlink:href="#b" x="125.488" y="142.881"/><use xlink:href="#c" x="134.465" y="142.881"/></g><path d="M117.41 117.316l4.63-14.496" stroke-width="1.2" stroke="#000" stroke-miterlimit="10" fill="none"/><path d="M122.04 102.82l4.624-14.5" stroke-width="1.2" stroke="#f00" stroke-miterlimit="10" fill="none"/><path d="M110.59 115.14l4.625-14.5" stroke-width="1.2" stroke="#000" stroke-miterlimit="10" fill="none"/><path d="M115.215 100.64l4.625-14.5" stroke-width="1.2" stroke="#f00" stroke-miterlimit="10" fill="none"/><path d="M114 116.23l-29.742 6.485" stroke-width="1.2" stroke="#000" stroke-miterlimit="10" fill="none"/><path d="M118.254 80.23h10v14h-10zm0 0" fill="#fff"/><use xlink:href="#d" x="118.254" y="91.369" fill="#f00"/><path d="M84.258 122.715l-12.23 27.875M61.53 102.47l22.728 20.245M59.04 109.84l18.183 16.2M72.027 150.59l-30.29-3.024M69.707 143.16l-24.23-2.418M41.738 147.566L38.492 132.7" stroke-width="1.2" stroke="#000" stroke-miterlimit="10" fill="none"/><path d="M38.492 132.7l-3.242-14.872M35.25 117.828l13.14-7.68" stroke-width="1.2" stroke="#cc0" stroke-miterlimit="10" fill="none"/><path d="M48.39 110.148l13.14-7.68" stroke-width="1.2" stroke="#000" stroke-miterlimit="10" fill="none"/><path d="M31.25 110.828h8v14h-8zm0 0" fill="#fff"/><use xlink:href="#a" x="31.25" y="121.967" fill="#cc0"/></g></svg>
